X:1
T:We'll Meet Again
M:C
K:C
L:1/4
V:1 name="Trumpet 1 in Bb" snm="Tpt 1"
z [P:A] | Z6 | z/ (B/ ._B) (B/ .A) (A/ | _A3) z | z/ .=B/ z z2 |
z/ .c A/ B/c/ .d | z/ .B/ z B2 | z/ .e (c/ ^d2) | Z2 |
z2 (3z/F/E/ (3.F/.A/.c/ | ^d3 z [P:B] |
V:2 name="Trumpet 2 in Bb" snm="Tpt 2"
z [P:A] | Z6 | z/ ^F/ .F F/ .F F/ | =F3 z | z/ .G/ z z2 |
z/ .A F/ G/A/ .B | z/ G/ z G2 | z/ c (A/ c2) | Z2 |
z2 (3z/F/E/ (3F/A/c/ | B3 z [P:B] |
V:3 name="Trumpet 3 in Bb" snm="Tpt 3"
z [P:A] | Z6 | z/ D/ .D D/ .D D/ | =F3 z | z/ .E/ z z2 |
z/ .F D/ F/F/ .G | z/ E/ z E2 | z/ A (^F/ A2) | Z2 |
